img/svg/bed.svg

<?xml version="1.0" encoding="utf-8"?><!DOCTYPE svg PUBLIC "-//W3C//DTD SVG 1.1//EN" "http://www.w3.org/Graphics/SVG/1.1/DTD/svg11.dtd"><svg version="1.1" baseProfile="full" xmlns="http://www.w3.org/2000/svg" xmlns:xlink="http://www.w3.org/1999/xlink" xmlns:ev="http://www.w3.org/2001/xml-events"   height="21px"   width="37px" ><path fill="rgb( 255, 102, 0 )" d="M34.037,21 C34.037,21 34.037,16.771 34.037,16.771 C34.037,16.771 2.96300000000002,16.771 2.96300000000002,16.771 C2.96300000000002,16.771 2.96300000000002,21 2.96300000000002,21 C2.96300000000002,21 0,21 0,21 C0,21 0,1.53099999999995 0,1.53099999999995 C0,1.14300000000003 0.14499999999998,0.78999999999996 0.43400000000003,0.47400000000005 C0.72300000000001,0.15800000000002 1.072,0 1.48099999999999,0 C1.89100000000002,0 2.24000000000001,0.15800000000002 2.529,0.47400000000005 C2.81799999999998,0.78999999999996 2.96300000000002,1.14200000000005 2.96300000000002,1.53099999999995 C2.96300000000002,1.53099999999995 2.96300000000002,13.7809999999999 2.96300000000002,13.7809999999999 C2.96300000000002,13.7809999999999 37,13.7809999999999 37,13.7809999999999 C37,13.7809999999999 37,21 37,21 C37,21 34.037,21 34.037,21 ZM6.28699999999998,12.177 C6.28699999999998,12.177 6.06999999999999,12.177 6.06999999999999,12.177 C5.27199999999999,12.177 4.625,11.524 4.625,10.7190000000001 C4.625,10.7190000000001 4.625,10.062 4.625,10.062 C4.625,9.41399999999999 5.04599999999999,8.86400000000003 5.62599999999998,8.67499999999995 C5.72000000000003,8.798 5.82299999999998,8.91700000000003 5.93700000000001,9.03200000000004 C6.59100000000001,9.69200000000001 7.38999999999999,10.026 8.31200000000001,10.026 C9.22800000000001,10.026 11.623,9.101 11.779,9.42499999999995 C11.779,9.42499999999995 11.779,5.68799999999999 11.779,5.68799999999999 C11.779,5.29899999999998 11.912,4.971 12.177,4.70299999999997 C12.442,4.43600000000004 12.767,4.30200000000002 13.152,4.30200000000002 C13.152,4.30200000000002 13.297,4.30200000000002 13.297,4.30200000000002 C13.297,4.30200000000002 34.76,6.41700000000003 34.76,6.41700000000003 C35.386,6.51400000000001 35.904,6.745 36.313,7.10900000000004 C36.723,7.47400000000005 36.928,7.94799999999998 36.928,8.53099999999995 C36.928,8.53099999999995 36.928,12.177 36.928,12.177 C36.928,12.177 10.481,12.177 10.481,12.177 C10.481,12.177 6.28699999999998,12.177 6.28699999999998,12.177 ZM10.218,8.60400000000004 C10.218,8.60400000000004 10.224,8.60400000000004 10.224,8.60400000000004 C10.164,8.65899999999999 10.1,8.70000000000005 10.039,8.74900000000002 C9.96300000000002,8.80999999999995 9.88900000000001,8.87699999999995 9.81,8.92899999999997 C9.73399999999998,8.97900000000004 9.65300000000002,9.01300000000003 9.57499999999999,9.05499999999995 C9.49799999999999,9.09400000000005 9.42500000000001,9.14099999999996 9.346,9.173 C9.24900000000002,9.21299999999997 9.14499999999998,9.23599999999999 9.04399999999998,9.26300000000003 C8.97800000000001,9.28099999999995 8.91500000000002,9.30799999999999 8.84699999999998,9.32000000000005 C8.67399999999998,9.35299999999995 8.49599999999998,9.37 8.31200000000001,9.37 C8.12700000000001,9.37 7.94999999999999,9.35299999999995 7.779,9.32000000000005 C7.71100000000001,9.30700000000002 7.64800000000002,9.28099999999995 7.58100000000002,9.26199999999994 C7.48200000000003,9.23500000000001 7.38099999999997,9.21199999999999 7.28699999999998,9.173 C7.20800000000003,9.14099999999996 7.13499999999999,9.09299999999996 7.05900000000003,9.05200000000002 C6.98399999999998,9.01199999999994 6.90600000000001,8.97799999999995 6.834,8.92899999999997 C6.75599999999997,8.87699999999995 6.68400000000003,8.80899999999997 6.60899999999998,8.74599999999998 C6.55099999999999,8.69799999999998 6.49000000000001,8.65800000000002 6.435,8.60400000000004 C6.435,8.60400000000004 6.44,8.60400000000004 6.44,8.60400000000004 C6.42599999999999,8.59100000000001 6.41000000000003,8.58199999999999 6.39699999999999,8.56799999999998 C5.86700000000002,8.03300000000002 5.60199999999998,7.38900000000001 5.60199999999998,6.63499999999999 C5.60199999999998,5.88199999999995 5.86700000000002,5.23800000000006 6.39699999999999,4.70299999999997 C6.92700000000002,4.16800000000001 7.565,3.90099999999995 8.31200000000001,3.90099999999995 C9.05799999999999,3.90099999999995 9.709,4.16800000000001 10.263,4.70299999999997 C10.817,5.23800000000006 11.094,5.88199999999995 11.094,6.63499999999999 C11.094,7.38900000000001 10.817,8.03300000000002 10.263,8.56799999999998 C10.249,8.58199999999999 10.233,8.59100000000001 10.218,8.60400000000004 Z "/></svg>

<svg baseProfile="full" xmlns="http://www.w3.org/2000/svg" height="21" width="37"><path fill="rgb( 255, 102, 0 )" d="M34.037 21v-4.229h-31.074v4.229h-2.963v-19.469c0-.388.145-.741.434-1.057.289-.316.638-.474 1.047-.474.41 0 .759.158 1.048.474.289.316.434.668.434 1.057v12.25h34.037v7.219h-2.963zm-27.75-8.823h-.217c-.798 0-1.445-.653-1.445-1.458v-.657c0-.648.421-1.198 1.001-1.387.094.123.197.242.311.357.654.66 1.453.994 2.375.994.916 0 3.311-.925 3.467-.601v-3.737c0-.389.133-.717.398-.985.265-.267.59-.401.975-.401h.145l21.463 2.115c.626.097 1.144.328 1.553.692.41.365.615.839.615 1.422v3.646h-30.641zm3.931-3.573h.006l-.185.145-.229.18-.235.126-.229.118-.302.09-.197.057c-.173.033-.351.05-.535.05-.185 0-.362-.017-.533-.05l-.198-.058-.294-.089-.228-.121-.225-.123-.225-.183-.174-.142h.005l-.043-.036c-.53-.535-.795-1.179-.795-1.933 0-.753.265-1.397.795-1.932.53-.535 1.168-.802 1.915-.802.746 0 1.397.267 1.951.802s.831 1.179.831 1.932c0 .754-.277 1.398-.831 1.933l-.045.036z"/></svg>
